X:1
T:Title
L:1/8
M:4/4
I:linebreak $
K:D
V:1 treble nm="Voice"
V:1
"A" eaaa gafg | e2"D" af"A" ecAc | eaaa gafg |"D" af"A7"ge"D" fdde |:"D" faaa gafg | %5
"A7" eaaf ecAc | eaaa gafg |1"D" af"A7"ge"D" fdde :|2"D" af"A7"ge"D" fdAd |:"D" fddd fddd | %10
"G" gdBd gdBd |"D" Adfd"A" cece |1"D" df"A"ec"D" d2 cB |[M:2/4] AF Ad :|2 %14
[M:4/4]"D" df"A"ec"D" d2 cd |] %15
